X:181
T:Miss Catherine Stewart , Pettyvaich
R:Jig
M:6/8
L:1/8
K:G % 1 sharp
"G"2Ge dBG|"C"ABG "D"2FD|"G"2Ge dBG|"D"def "G7"2gd|\
"C"Efg "G"dBG|"Am"ABG "D"2FA|"Em"2Ge "G"dBG|"D7'DEF "G"3G:||\
"G"gdg bag|"D7"fdf agf|"G"gdg bag|"D"fga "G"dcB|"C"ece "G"dcB|\
"Am"AB"A7"G "D"FED|"Em"2Ge "G"dBG|"D7"DEF "G"3G|"G"gdg bag|"D7"fdf agf|\
"G"gdg bag|"C"fga "G"dcB|"C"ece "G"dcB|"Am"AB"A7"G "D"FED|"Em"2Ge "G"dBG|"D7"DEF "G"3G||
%  <A name="D1X182">
